flaticon/household/window-2.svg

<svg xmlns="http://www.w3.org/2000/svg" width="32" height="32" viewBox="0 0 24 24">
    <path d="M 23.601562 3.601562 L 23.601562 2.398438 L 24 2.398438 L 24 0 L 0 0 L 0 2.398438 L 0.398438 2.398438 L 0.398438 3.601562 L 0.800781 3.601562 L 0.800781 20.398438 L 0 20.398438 L 0 22.800781 L 0.398438 22.800781 L 0.398438 24 L 23.601562 24 L 23.601562 22.800781 L 24 22.800781 L 24 20.398438 L 23.199219 20.398438 L 23.199219 3.601562 Z M 0.800781 0.800781 L 23.199219 0.800781 L 23.199219 1.601562 L 0.800781 1.601562 Z M 22.800781 2.398438 L 22.800781 2.800781 L 1.199219 2.800781 L 1.199219 2.398438 Z M 4 12.800781 L 4 4.800781 L 20 4.800781 L 20 12.800781 Z M 17.601562 14.800781 C 17.601562 14.90625 17.558594 15.007812 17.484375 15.082031 L 17.367188 15.199219 L 17.367188 15.367188 C 17.367188 15.472656 17.324219 15.574219 17.25 15.648438 C 17.171875 15.722656 17.074219 15.765625 16.964844 15.765625 L 16.800781 15.765625 L 16.683594 15.882812 C 16.53125 16.035156 16.269531 16.035156 16.117188 15.882812 L 16 15.765625 L 15.835938 15.765625 C 15.726562 15.765625 15.625 15.722656 15.550781 15.648438 C 15.476562 15.574219 15.433594 15.472656 15.433594 15.367188 L 15.433594 15.199219 L 15.316406 15.082031 C 15.242188 15.007812 15.199219 14.90625 15.199219 14.800781 C 15.199219 14.746094 15.210938 14.695312 15.230469 14.648438 L 15.230469 14.644531 C 15.25 14.597656 15.277344 14.554688 15.316406 14.519531 C 15.316406 14.519531 15.316406 14.519531 15.316406 14.515625 L 15.433594 14.402344 L 15.433594 14.234375 C 15.433594 14.128906 15.476562 14.027344 15.550781 13.953125 C 15.625 13.875 15.726562 13.835938 15.835938 13.835938 L 16 13.835938 L 16.117188 13.71875 C 16.269531 13.566406 16.53125 13.566406 16.683594 13.71875 L 16.800781 13.835938 L 16.964844 13.835938 C 17.074219 13.835938 17.171875 13.875 17.25 13.953125 C 17.324219 14.027344 17.367188 14.128906 17.367188 14.234375 L 17.367188 14.402344 L 17.484375 14.515625 C 17.484375 14.519531 17.484375 14.519531 17.484375 14.519531 C 17.519531 14.554688 17.550781 14.597656 17.570312 14.644531 L 17.570312 14.648438 C 17.589844 14.695312 17.601562 14.746094 17.601562 14.800781 Z M 18.511719 18.398438 L 14.289062 18.398438 L 14.15625 18 L 18.644531 18 Z M 14.644531 15.527344 C 14.679688 15.785156 14.796875 16.027344 14.984375 16.214844 C 15.175781 16.402344 15.414062 16.519531 15.671875 16.554688 C 15.777344 16.632812 15.890625 16.695312 16.011719 16.738281 C 16.007812 16.757812 16 16.777344 16 16.800781 L 16 17.199219 L 13.046875 17.199219 L 13.710938 19.199219 L 14.128906 19.199219 L 14.609375 20.398438 L 2.800781 20.398438 L 2.800781 14.800781 L 14.398438 14.800781 C 14.398438 15.066406 14.484375 15.320312 14.644531 15.527344 Z M 14.992188 19.199219 L 17.808594 19.199219 L 17.328125 20.398438 L 15.472656 20.398438 Z M 18.671875 19.199219 L 19.089844 19.199219 L 19.753906 17.199219 L 16.800781 17.199219 L 16.800781 16.800781 C 16.800781 16.777344 16.789062 16.757812 16.789062 16.738281 C 16.910156 16.695312 17.023438 16.632812 17.125 16.554688 C 17.386719 16.519531 17.625 16.402344 17.8125 16.214844 C 18.003906 16.027344 18.121094 15.785156 18.15625 15.527344 C 18.3125 15.320312 18.398438 15.066406 18.398438 14.800781 L 21.199219 14.800781 L 21.199219 20.398438 L 18.191406 20.398438 Z M 21.199219 14 L 18.144531 14 C 18.136719 13.976562 18.128906 13.953125 18.125 13.933594 C 18.117188 13.90625 18.113281 13.882812 18.105469 13.859375 C 18.09375 13.824219 18.078125 13.789062 18.0625 13.753906 C 18.054688 13.734375 18.042969 13.710938 18.03125 13.6875 C 18.019531 13.65625 18 13.628906 17.980469 13.601562 L 20.800781 13.601562 L 20.800781 4 L 3.199219 4 L 3.199219 13.601562 L 14.820312 13.601562 C 14.800781 13.628906 14.78125 13.65625 14.765625 13.6875 C 14.753906 13.710938 14.746094 13.730469 14.738281 13.753906 C 14.722656 13.789062 14.707031 13.824219 14.695312 13.859375 C 14.6875 13.882812 14.683594 13.90625 14.675781 13.933594 C 14.667969 13.953125 14.660156 13.976562 14.65625 14 L 2.800781 14 L 2.800781 3.601562 L 21.199219 3.601562 Z M 1.601562 3.601562 L 2 3.601562 L 2 20.398438 L 1.601562 20.398438 Z M 22.800781 23.199219 L 1.199219 23.199219 L 1.199219 22.800781 L 22.800781 22.800781 Z M 23.199219 22 L 0.800781 22 L 0.800781 21.199219 L 23.199219 21.199219 Z M 22.398438 20.398438 L 22 20.398438 L 22 3.601562 L 22.398438 3.601562 Z M 22.398438 20.398438"/>
    <path d="M16.800781 14.800781C16.800781 15.019531 16.621094 15.199219 16.398438 15.199219 16.179688 15.199219 16 15.019531 16 14.800781 16 14.578125 16.179688 14.398438 16.398438 14.398438 16.621094 14.398438 16.800781 14.578125 16.800781 14.800781zM5.601562 8C5.703125 8 5.804688 7.960938 5.882812 7.882812L7.484375 6.28125C7.640625 6.125 7.640625 5.875 7.484375 5.71875 7.328125 5.5625 7.074219 5.5625 6.917969 5.71875L5.316406 7.316406C5.160156 7.472656 5.160156 7.726562 5.316406 7.882812 5.394531 7.960938 5.496094 8 5.601562 8zM6.117188 8.515625L5.316406 9.316406C5.160156 9.472656 5.160156 9.726562 5.316406 9.882812 5.394531 9.960938 5.496094 10 5.601562 10 5.703125 10 5.804688 9.960938 5.882812 9.882812L6.683594 9.082031C6.839844 8.925781 6.839844 8.671875 6.683594 8.515625 6.527344 8.359375 6.273438 8.359375 6.117188 8.515625zM6.914062 7.714844C6.84375 7.792969 6.800781 7.890625 6.800781 8 6.800781 8.105469 6.84375 8.207031 6.914062 8.285156 6.992188 8.355469 7.097656 8.398438 7.199219 8.398438 7.304688 8.398438 7.40625 8.355469 7.484375 8.285156 7.554688 8.207031 7.601562 8.105469 7.601562 8 7.601562 7.894531 7.554688 7.792969 7.484375 7.714844 7.335938 7.566406 7.0625 7.566406 6.914062 7.714844zM8.917969 5.71875L7.71875 6.917969C7.5625 7.074219 7.5625 7.328125 7.71875 7.484375 7.796875 7.5625 7.898438 7.601562 8 7.601562 8.101562 7.601562 8.203125 7.5625 8.28125 7.484375L9.484375 6.28125C9.640625 6.125 9.640625 5.875 9.484375 5.71875 9.328125 5.5625 9.074219 5.5625 8.917969 5.71875zM8.917969 5.71875"/>
</svg>

<svg xmlns="http://www.w3.org/2000/svg" width="32" height="32" viewBox="0 0 24 24">
    <path d="M23.602 3.602V2.398H24V0H0v2.398h.398v1.204h.403v16.796H0v2.403h.398V24h23.204v-1.2H24v-2.402h-.8V3.602zM.8.8h22.398v.8H.801zm22 1.597v.403H1.199v-.403zM4 12.801v-8h16v8zm13.602 2a.4.4 0 0 1-.118.281l-.117.117v.168a.4.4 0 0 1-.402.399H16.8l-.117.117a.408.408 0 0 1-.567 0L16 15.766h-.164a.402.402 0 0 1-.402-.399V15.2l-.118-.117a.4.4 0 0 1-.086-.434v-.003a.342.342 0 0 1 .086-.125v-.004l.118-.114v-.168a.4.4 0 0 1 .402-.398H16l.117-.117a.408.408 0 0 1 .567 0l.117.117h.164a.4.4 0 0 1 .402.398v.168l.117.114v.004a.397.397 0 0 1 .086.125v.003c.02.047.032.098.032.153zm.91 3.597h-4.223L14.156 18h4.489zm-3.867-2.87a1.2 1.2 0 0 0 1.027 1.027c.105.078.219.14.34.183-.004.02-.012.04-.012.063v.398h-2.953l.664 2h.418l.48 1.2H2.801V14.8h11.597c0 .265.086.52.247.726zm.347 3.671h2.817l-.48 1.2h-1.856zm3.68 0h.418l.664-2H16.8v-.398c0-.024-.012-.043-.012-.063.121-.043.234-.105.336-.183.262-.035.5-.153.688-.34.19-.188.308-.43.343-.688.157-.207.242-.46.242-.726H21.2v5.597h-3.008zM21.199 14h-3.054c-.008-.023-.016-.047-.02-.066-.008-.028-.012-.051-.02-.075a1.196 1.196 0 0 0-.043-.105c-.007-.02-.019-.043-.03-.066-.012-.032-.032-.06-.052-.086h2.82V4H3.2v9.602h11.62a.477.477 0 0 0-.082.152c-.015.035-.031.07-.043.105-.008.024-.011.047-.02.075a.33.33 0 0 0-.019.066H2.801V3.602h18.398zM1.602 3.602H2v16.796h-.398zM22.8 23.199H1.199v-.398h21.602zM23.199 22H.801v-.8h22.398zm-.8-1.602H22V3.602h.398zm0 0"/>
    <path d="M16.8 14.8a.401.401 0 1 1-.801-.004.401.401 0 0 1 .802.005zm0 0M5.602 8c.101 0 .203-.04.28-.117L7.485 6.28a.396.396 0 0 0 0-.562.4.4 0 0 0-.566 0L5.316 7.316A.4.4 0 0 0 5.602 8zm0 0M6.117 8.516l-.8.8a.4.4 0 0 0 .566.567l.8-.801a.4.4 0 0 0-.566-.566zm0 0M6.914 7.715A.423.423 0 0 0 6.801 8a.43.43 0 0 0 .113.285c.078.07.184.113.285.113a.43.43 0 0 0 .285-.113A.434.434 0 0 0 7.602 8a.434.434 0 0 0-.118-.285.42.42 0 0 0-.57 0zm0 0M8.918 5.719l-1.2 1.199A.4.4 0 0 0 8 7.602c.102 0 .203-.04.281-.118l1.203-1.203a.396.396 0 0 0 0-.562.4.4 0 0 0-.566 0zm0 0"/>
</svg>
